world_stage/static/flags/rect/niu.svg

<svg height="888.88934" viewBox="0 0 1333.3333 888.88934" width="1333.3333" xmlns="http://www.w3.org/2000/svg" xmlns:xlink="http://www.w3.org/1999/xlink"><clipPath id="a"><path d="m0 666.667h1000v-666.667h-1000z" transform="translate(-253.44381 -522.80541)"/></clipPath><clipPath id="b"><path d="m0 666.667h1000v-666.667h-1000z" transform="translate(-230.09331 -518.47631)"/></clipPath><clipPath id="c"><path d="m0 666.667h1000v-666.667h-1000z" transform="translate(-98.873005 -518.18132)"/></clipPath><clipPath id="d"><path d="m0 666.667h1000v-666.667h-1000z" transform="translate(-350.33301 -518.18132)"/></clipPath><clipPath id="e"><path d="m0 666.667h1000v-666.667h-1000z" transform="translate(-224.60301 -446.33561)"/></clipPath><clipPath id="f"><path d="m0 666.667h1000v-666.667h-1000z" transform="translate(-224.60301 -590.02701)"/></clipPath><path d="m0 0h1000v666.667h-1000z" fill="#fcd116" transform="matrix(1.3333333 0 0 -1.3333333 0 888.88933)"/><path d="m0 378h433v288.667h-433z" fill="#00247d" transform="matrix(1.3333333 0 0 -1.3333333 0 888.88933)"/><path d="m0 0-168.089-112.059 48.411-32.274 168.089 112.059v32.274zm-384.589 0v-32.274l168.089-112.059 48.411 32.274-168.089 112.059zm0-256.392v-32.275h48.411l168.089 112.06-48.411 32.274zm216.5 79.785 168.089-112.06h48.411v32.274l-168.089 112.06z" fill="#fff" transform="matrix(1.3333333 0 0 -1.3333333 512.7852 .000133)"/><path d="m0 0v-96.223h-180.417v-96.221h180.417v-96.223h72.166v96.223h180.417v96.221h-180.417v96.223z" fill="#fff" transform="matrix(1.3333333 0 0 -1.3333333 240.5556 .000133)"/><path d="m0 0v-115.467h-194.85v-57.733h194.85v-115.467h43.3v115.467h194.85v57.733h-194.85v115.467z" fill="#cf142b" transform="matrix(1.3333333 0 0 -1.3333333 259.8 .000133)"/><path d="m0 0-144.334-96.223h32.274l144.333 96.223zm-400.727 0v-21.516l112.06-74.707h32.274zm288.667-192.444 144.333-96.223v21.516l-112.06 74.707zm-144.333 0-144.334-96.223h32.274l144.333 96.223z" fill="#cf142b" transform="matrix(1.3333333 0 0 -1.3333333 534.3024 .000133)"/><path clip-path="url(#a)" d="m0 0c0-20.252-16.419-36.672-36.672-36.672-20.251 0-36.67 16.42-36.67 36.672 0 20.251 16.419 36.67 36.67 36.67 20.253 0 36.672-16.419 36.672-36.67" fill="#002868" transform="matrix(1.3333333 0 0 -1.3333333 337.92507 191.81547)"/><g fill="#fcd116"><path clip-path="url(#b)" d="m0 0 21.554 15.66h-26.642l-8.233 25.34-8.233-25.34h-26.642l21.554-15.66-8.233-25.338 21.554 15.66 21.553-15.66z" transform="matrix(1.3333333 0 0 -1.3333333 306.79107 197.5876)"/><path clip-path="url(#c)" d="m0 0 12.667 9.203h-15.658l-4.84 14.894-4.839-14.894h-15.659l12.668-9.203-4.84-14.895 12.67 9.206 12.672-9.206z" transform="matrix(1.3333333 0 0 -1.3333333 131.83067 197.98093)"/><path clip-path="url(#d)" d="m0 0 12.667 9.203h-15.658l-4.84 14.894-4.839-14.894h-15.659l12.668-9.203-4.839-14.895 12.669 9.206 12.672-9.206z" transform="matrix(1.3333333 0 0 -1.3333333 467.11067 197.98093)"/><path clip-path="url(#e)" d="m0 0 12.667 9.203h-15.658l-4.84 14.894-4.839-14.894h-15.659l12.668-9.203-4.84-14.895 12.67 9.206 12.672-9.206z" transform="matrix(1.3333333 0 0 -1.3333333 299.47067 293.7752)"/><path clip-path="url(#f)" d="m0 0 12.667 9.203h-15.658l-4.84 14.894-4.839-14.894h-15.659l12.668-9.203-4.84-14.895 12.67 9.206 12.672-9.206z" transform="matrix(1.3333333 0 0 -1.3333333 299.47067 102.18667)"/></g></svg>

<?xml version="1.0" encoding="UTF-8" standalone="no"?>
<!-- Created with Inkscape (http://www.inkscape.org/) -->

<svg
   version="1.1"
   id="svg1"
   width="1333.3333"
   height="888.88934"
   viewBox="0 0 1333.3333 888.88934"
   sodipodi:docname="nu.ai"
   xmlns:inkscape="http://www.inkscape.org/namespaces/inkscape"
   xmlns:sodipodi="http://sodipodi.sourceforge.net/DTD/sodipodi-0.dtd"
   xmlns="http://www.w3.org/2000/svg"
   xmlns:svg="http://www.w3.org/2000/svg">
  <defs
     id="defs1">
    <clipPath
       clipPathUnits="userSpaceOnUse"
       id="clipPath8">
      <path
         d="M 0,666.667 H 1000 V 0 H 0 Z"
         transform="translate(-253.44381,-522.80541)"
         id="path8" />
    </clipPath>
    <clipPath
       clipPathUnits="userSpaceOnUse"
       id="clipPath10">
      <path
         d="M 0,666.667 H 1000 V 0 H 0 Z"
         transform="translate(-230.09331,-518.47631)"
         id="path10" />
    </clipPath>
    <clipPath
       clipPathUnits="userSpaceOnUse"
       id="clipPath12">
      <path
         d="M 0,666.667 H 1000 V 0 H 0 Z"
         transform="translate(-98.873005,-518.18132)"
         id="path12" />
    </clipPath>
    <clipPath
       clipPathUnits="userSpaceOnUse"
       id="clipPath14">
      <path
         d="M 0,666.667 H 1000 V 0 H 0 Z"
         transform="translate(-350.33301,-518.18132)"
         id="path14" />
    </clipPath>
    <clipPath
       clipPathUnits="userSpaceOnUse"
       id="clipPath16">
      <path
         d="M 0,666.667 H 1000 V 0 H 0 Z"
         transform="translate(-224.60301,-446.33561)"
         id="path16" />
    </clipPath>
    <clipPath
       clipPathUnits="userSpaceOnUse"
       id="clipPath18">
      <path
         d="M 0,666.667 H 1000 V 0 H 0 Z"
         transform="translate(-224.60301,-590.02701)"
         id="path18" />
    </clipPath>
  </defs>
  <sodipodi:namedview
     id="namedview1"
     pagecolor="#ffffff"
     bordercolor="#000000"
     borderopacity="0.25"
     inkscape:showpageshadow="2"
     inkscape:pageopacity="0.0"
     inkscape:pagecheckerboard="0"
     inkscape:deskcolor="#d1d1d1">
    <inkscape:page
       x="0"
       y="0"
       inkscape:label="1"
       id="page1"
       width="1333.3333"
       height="888.88934"
       margin="0"
       bleed="0" />
  </sodipodi:namedview>
  <g
     id="layer-MC0"
     inkscape:groupmode="layer"
     inkscape:label="svg1">
    <path
       id="path1"
       d="M 0,0 H 1000 V 666.667 H 0 Z"
       style="fill:#fcd116;fill-opacity:1;fill-rule:nonzero;stroke:none"
       transform="matrix(1.3333333,0,0,-1.3333333,0,888.88933)" />
    <path
       id="path2"
       d="M 0,378 H 433 V 666.667 H 0 Z"
       style="fill:#00247d;fill-opacity:1;fill-rule:nonzero;stroke:none"
       transform="matrix(1.3333333,0,0,-1.3333333,0,888.88933)" />
    <path
       id="path3"
       d="m 0,0 -168.089,-112.059 48.411,-32.274 168.089,112.059 V 0 Z m -384.589,0 v -32.274 l 168.089,-112.059 48.411,32.274 L -336.178,0 Z m 0,-256.392 v -32.275 h 48.411 l 168.089,112.06 -48.411,32.274 z m 216.5,79.785 L 0,-288.667 h 48.411 v 32.274 l -168.089,112.06 z"
       style="fill:#ffffff;fill-opacity:1;fill-rule:nonzero;stroke:none"
       transform="matrix(1.3333333,0,0,-1.3333333,512.7852,1.3333333e-4)" />
    <path
       id="path4"
       d="m 0,0 v -96.223 h -180.417 v -96.221 H 0 v -96.223 h 72.166 v 96.223 h 180.417 v 96.221 H 72.166 V 0 Z"
       style="fill:#ffffff;fill-opacity:1;fill-rule:nonzero;stroke:none"
       transform="matrix(1.3333333,0,0,-1.3333333,240.5556,1.3333333e-4)" />
    <path
       id="path5"
       d="M 0,0 V -115.467 H -194.85 V -173.2 H 0 V -288.667 H 43.3 V -173.2 h 194.85 v 57.733 H 43.3 L 43.3,0 Z"
       style="fill:#cf142b;fill-opacity:1;fill-rule:nonzero;stroke:none"
       transform="matrix(1.3333333,0,0,-1.3333333,259.8,1.3333333e-4)" />
    <path
       id="path6"
       d="m 0,0 -144.334,-96.223 h 32.274 L 32.273,0 Z m -400.727,0 v -21.516 l 112.06,-74.707 h 32.274 z m 288.667,-192.444 144.333,-96.223 v 21.516 l -112.06,74.707 z m -144.333,0 -144.334,-96.223 h 32.274 l 144.333,96.223 z"
       style="fill:#cf142b;fill-opacity:1;fill-rule:nonzero;stroke:none"
       transform="matrix(1.3333333,0,0,-1.3333333,534.3024,1.3333333e-4)" />
    <path
       id="path7"
       d="m 0,0 c 0,-20.252 -16.419,-36.672 -36.672,-36.672 -20.251,0 -36.67,16.42 -36.67,36.672 0,20.251 16.419,36.67 36.67,36.67 C -16.419,36.67 0,20.251 0,0"
       style="fill:#002868;fill-opacity:1;fill-rule:nonzero;stroke:none"
       transform="matrix(1.3333333,0,0,-1.3333333,337.92507,191.81547)"
       clip-path="url(#clipPath8)" />
    <path
       id="path9"
       d="M 0,0 21.554,15.66 H -5.088 L -13.321,41 -21.554,15.66 H -48.196 L -26.642,0 l -8.233,-25.338 21.554,15.66 21.553,-15.66 z"
       style="fill:#fcd116;fill-opacity:1;fill-rule:nonzero;stroke:none"
       transform="matrix(1.3333333,0,0,-1.3333333,306.79107,197.5876)"
       clip-path="url(#clipPath10)" />
    <path
       id="path11"
       d="M 0,0 12.667,9.203 H -2.991 L -7.831,24.097 -12.67,9.203 H -28.329 L -15.661,0 l -4.84,-14.895 12.67,9.206 12.672,-9.206 z"
       style="fill:#fcd116;fill-opacity:1;fill-rule:nonzero;stroke:none"
       transform="matrix(1.3333333,0,0,-1.3333333,131.83067,197.98093)"
       clip-path="url(#clipPath12)" />
    <path
       id="path13"
       d="M 0,0 12.667,9.203 H -2.991 L -7.831,24.097 -12.67,9.203 H -28.329 L -15.661,0 -20.5,-14.895 -7.831,-5.689 4.841,-14.895 Z"
       style="fill:#fcd116;fill-opacity:1;fill-rule:nonzero;stroke:none"
       transform="matrix(1.3333333,0,0,-1.3333333,467.11067,197.98093)"
       clip-path="url(#clipPath14)" />
    <path
       id="path15"
       d="M 0,0 12.667,9.203 H -2.991 L -7.831,24.097 -12.67,9.203 H -28.329 L -15.661,0 l -4.84,-14.895 12.67,9.206 12.672,-9.206 z"
       style="fill:#fcd116;fill-opacity:1;fill-rule:nonzero;stroke:none"
       transform="matrix(1.3333333,0,0,-1.3333333,299.47067,293.7752)"
       clip-path="url(#clipPath16)" />
    <path
       id="path17"
       d="M 0,0 12.667,9.203 H -2.991 L -7.831,24.097 -12.67,9.203 H -28.329 L -15.661,0 l -4.84,-14.895 12.67,9.206 12.672,-9.206 z"
       style="fill:#fcd116;fill-opacity:1;fill-rule:nonzero;stroke:none"
       transform="matrix(1.3333333,0,0,-1.3333333,299.47067,102.18667)"
       clip-path="url(#clipPath18)" />
  </g>
</svg>
